public/static/img/assets/ipo_icon.svg

<svg width="24" height="24" viewBox="0 0 24 24" fill="none" xmlns="http://www.w3.org/2000/svg">
<g clip-path="url(#clip0_572_81167)">
<path d="M4.5 2.25C3.70435 2.25 2.94129 2.56607 2.37868 3.12868C1.81607 3.69129 1.5 4.45435 1.5 5.25V15C1.5 15.7956 1.81607 16.5587 2.37868 17.1213C2.94129 17.6839 3.70435 18 4.5 18H19.5C20.2956 18 21.0587 17.6839 21.6213 17.1213C22.1839 16.5587 22.5 15.7956 22.5 15V5.25C22.5 4.45435 22.1839 3.69129 21.6213 3.12868C21.0587 2.56607 20.2956 2.25 19.5 2.25H4.5ZM4.5 0.75H19.5C20.6935 0.75 21.8381 1.22411 22.682 2.06802C23.5259 2.91193 24 4.05653 24 5.25V15C24 16.1935 23.5259 17.3381 22.682 18.182C21.8381 19.0259 20.6935 19.5 19.5 19.5H4.5C3.30653 19.5 2.16193 19.0259 1.31802 18.182C0.474106 17.3381 0 16.1935 0 15L0 5.25C0 4.05653 0.474106 2.91193 1.31802 2.06802C2.16193 1.22411 3.30653 0.75 4.5 0.75ZM4.125 21.75H19.875C19.9745 21.75 20.0698 21.7895 20.1402 21.8598C20.2105 21.9302 20.25 22.0255 20.25 22.125V22.875C20.25 22.9745 20.2105 23.0698 20.1402 23.1402C20.0698 23.2105 19.9745 23.25 19.875 23.25H4.125C4.02554 23.25 3.93016 23.2105 3.85984 23.1402C3.78951 23.0698 3.75 22.9745 3.75 22.875V22.125C3.75 22.0255 3.78951 21.9302 3.85984 21.8598C3.93016 21.7895 4.02554 21.75 4.125 21.75Z" fill="#36394C"/>
<path d="M5.25 13.848V6.87H6.65925V13.8488H5.25V13.848ZM7.62675 13.848V6.87H9.888C10.7453 6.87 11.3033 6.9045 11.5635 6.975C11.964 7.07925 12.2985 7.30725 12.5685 7.6575C12.8385 8.0085 12.9735 8.4615 12.9735 9.0165C12.9735 9.4455 12.8955 9.8055 12.7395 10.0973C12.5843 10.3898 12.387 10.6185 12.147 10.7857C11.907 10.9523 11.664 11.0625 11.4165 11.1158C11.0798 11.1833 10.593 11.2163 9.954 11.2163H9.036V13.8488H7.626L7.62675 13.848ZM9.036 8.04975V10.0298H9.807C10.362 10.0298 10.734 9.99375 10.9215 9.921C11.109 9.8475 11.2553 9.7335 11.3618 9.57825C11.4694 9.41794 11.5249 9.22831 11.5208 9.03525C11.5208 8.781 11.4457 8.57175 11.2972 8.40675C11.1491 8.24221 10.9494 8.13297 10.731 8.097C10.5622 8.0655 10.2248 8.04975 9.717 8.04975H9.036ZM13.4692 10.4018C13.4692 9.69075 13.5758 9.09375 13.788 8.6115C13.947 8.256 14.163 7.9365 14.4382 7.6545C14.693 7.3857 15.0001 7.17182 15.3405 7.026C15.7755 6.84225 16.2765 6.75 16.8442 6.75C17.8732 6.75 18.696 7.06875 19.3132 7.707C19.9305 8.3445 20.2388 9.23175 20.2388 10.368C20.2388 11.4953 19.9328 12.3765 19.32 13.0125C18.708 13.6493 17.889 13.9672 16.8638 13.9672C15.8258 13.9672 15.0007 13.6508 14.3887 13.0178C13.7752 12.384 13.4692 11.5125 13.4692 10.4018ZM14.9213 10.3538C14.9213 11.1443 15.1035 11.7435 15.4688 12.1508C15.834 12.5588 16.2968 12.7628 16.8593 12.7628C17.421 12.7628 17.8815 12.5603 18.2422 12.1553C18.6022 11.751 18.7822 11.1443 18.7822 10.335C18.7822 9.53475 18.6067 8.9385 18.2565 8.54475C17.9055 8.151 17.439 7.9545 16.8593 7.9545C16.278 7.9545 15.8093 8.15325 15.4545 8.55225C15.099 8.94975 14.9213 9.55125 14.9213 10.3538Z" fill="#36394C"/>
</g>
<defs>
<clipPath id="clip0_572_81167">
<rect width="24" height="24" fill="white"/>
</clipPath>
</defs>
</svg>

<svg width="24" height="24" viewBox="0 0 24 24" fill="none" xmlns="http://www.w3.org/2000/svg"><g clip-path="url(#a)" fill="#36394C"><path d="M4.5 2.25a3 3 0 0 0-3 3V15a3 3 0 0 0 3 3h15a3 3 0 0 0 3-3V5.25a3 3 0 0 0-3-3h-15zm0-1.5h15a4.5 4.5 0 0 1 4.5 4.5V15a4.5 4.5 0 0 1-4.5 4.5h-15A4.5 4.5 0 0 1 0 15V5.25A4.5 4.5 0 0 1 4.5.75zm-.375 21h15.75a.375.375 0 0 1 .375.375v.75a.375.375 0 0 1-.375.375H4.125a.375.375 0 0 1-.375-.375v-.75a.375.375 0 0 1 .375-.375z"/><path d="M5.25 13.848V6.87h1.41v6.979H5.25v-.001zm2.377 0V6.87h2.261c.857 0 1.415.034 1.675.105.401.104.736.332 1.005.683.27.35.405.803.405 1.359 0 .428-.078.789-.234 1.08a1.909 1.909 0 0 1-.592.689c-.24.166-.483.277-.73.33-.337.067-.824.1-1.463.1h-.918v2.633h-1.41v-.001zM9.036 8.05v1.98h.771c.555 0 .927-.036 1.114-.109a.93.93 0 0 0 .44-.343.939.939 0 0 0 .16-.543.904.904 0 0 0-.224-.628.975.975 0 0 0-.566-.31c-.169-.031-.506-.047-1.014-.047h-.681zm4.433 2.352c0-.711.107-1.308.319-1.79.159-.356.375-.676.65-.958.255-.268.562-.482.902-.628.435-.184.936-.276 1.504-.276 1.03 0 1.852.319 2.47.957.616.638.925 1.525.925 2.661 0 1.127-.306 2.008-.919 2.644-.612.637-1.431.955-2.456.955-1.038 0-1.863-.316-2.475-.95-.614-.633-.92-1.505-.92-2.615zm1.452-.048c0 .79.183 1.39.548 1.797.365.408.828.612 1.39.612.562 0 1.022-.203 1.383-.608.36-.404.54-1.01.54-1.82 0-.8-.175-1.397-.526-1.79-.35-.394-.817-.59-1.397-.59-.581 0-1.05.198-1.405.597-.355.398-.533 1-.533 1.802z"/></g><defs><clipPath id="a"><path fill="#fff" d="M0 0h24v24H0z"/></clipPath></defs></svg>
